assets/Bowling/Flat/bowling_flat.svg

<svg width="32" height="32" viewBox="0 0 32 32" fill="none" xmlns="http://www.w3.org/2000/svg">
<path fill-rule="evenodd" clip-rule="evenodd" d="M23.9807 5.01189C22.4337 5.11687 21.0911 6.00189 20.3431 7.27192C19.4949 5.82378 17.8761 4.88227 16.0508 5.01189C13.7703 5.16664 11.9339 7.01648 11.7921 9.29594C11.741 10.0799 11.8961 10.8199 12.1855 11.474L12.1895 11.4828C12.78 12.7838 13.12 14.1633 13.12 15.5495V15.7495C13.12 16.3932 12.8532 17.0162 12.3839 17.4716L12.0987 17.747L12.0971 17.7485C8.91036 20.7994 8.87894 25.8755 12.0055 28.9792L12.0077 28.9813L13.5129 30.4666L13.5159 30.4695C13.8331 30.7852 14.2761 30.9695 14.73 30.9695H18.05C18.4941 30.9695 18.9311 30.8019 19.2657 30.4681L19.2672 30.4666L20.3514 29.3896L21.4429 30.4666L21.4459 30.4696C21.7632 30.7852 22.2061 30.9695 22.66 30.9695H25.98C26.4242 30.9695 26.8613 30.8018 27.196 30.4676L27.1971 30.4666L28.7032 28.9705L28.7039 28.9698C31.8437 25.8635 31.7977 20.7857 28.6114 17.7369L28.3023 17.4484L28.2942 17.441C27.8199 17.0079 27.56 16.3997 27.56 15.7495C27.56 14.2783 27.9124 12.8042 28.5166 11.4193L28.518 11.4159C28.7579 10.8605 28.9 10.246 28.9 9.58949C28.9 6.94461 26.6635 4.82138 23.9807 5.01189ZM21.05 15.7495C21.05 16.3748 20.7988 16.9799 20.3542 17.4315C19.8897 16.9932 19.63 16.3861 19.63 15.7495C19.63 14.4871 19.8895 13.2227 20.3448 12.0143C20.7956 13.1567 21.05 14.3506 21.05 15.5495V15.7495Z" fill="#9B9B9B"/>
<path d="M26.5602 15.7494C26.5602 14.1194 26.9502 12.5094 27.6002 11.0194C27.7902 10.5794 27.9002 10.0994 27.9002 9.58943C27.9002 7.51943 26.1502 5.85943 24.0502 6.00943C22.2702 6.12943 20.8302 7.57943 20.7202 9.35943C20.6802 9.96943 20.8002 10.5494 21.0302 11.0694C21.6702 12.4794 22.0502 13.9994 22.0502 15.5494V15.7494C22.0502 16.6694 21.6702 17.5494 21.0102 18.1894L20.7202 18.4694C17.9402 21.1294 17.9102 25.5594 20.6402 28.2694L22.1502 29.7594C22.2802 29.8894 22.4702 29.9694 22.6602 29.9694H25.9802C26.1702 29.9694 26.3502 29.8994 26.4902 29.7594L28.0002 28.2594C30.7402 25.5494 30.7002 21.1194 27.9202 18.4594L27.6202 18.1794C26.9302 17.5494 26.5602 16.6694 26.5602 15.7494Z" fill="#E6E6E6"/>
<path d="M18.63 15.7494C18.63 14.1194 19.0201 12.5094 19.67 11.0194C19.86 10.5794 19.97 10.0994 19.97 9.58943C19.97 7.51943 18.22 5.85943 16.12 6.00943C14.34 6.12943 12.9 7.57943 12.79 9.35943C12.75 9.96943 12.87 10.5494 13.1 11.0694C13.74 12.4794 14.12 13.9994 14.12 15.5494V15.7494C14.12 16.6694 13.74 17.5494 13.08 18.1894L12.79 18.4694C10.01 21.1294 9.98005 25.5594 12.71 28.2694L14.22 29.7594C14.35 29.8894 14.54 29.9694 14.73 29.9694H18.05C18.24 29.9694 18.42 29.8994 18.56 29.7594L20.07 28.2594C22.81 25.5494 22.77 21.1194 19.99 18.4594L19.6901 18.1794C19.01 17.5494 18.63 16.6694 18.63 15.7494Z" fill="#F4F4F4"/>
<path d="M18.63 15.7493C18.63 15.6793 18.6308 15.6093 18.6322 15.5394H14.12V15.7493C14.12 16.1382 14.0522 16.5199 13.9239 16.8794H18.8279C18.698 16.5204 18.63 16.1385 18.63 15.7493Z" fill="#CA0B4A"/>
<path d="M18.7135 14.4294C18.7701 13.9783 18.8544 13.5309 18.9637 13.0894H13.8096C13.9198 13.5304 14.0026 13.9777 14.0549 14.4294H18.7135Z" fill="#CA0B4A"/>
<path d="M26.56 15.7493L26.5601 15.7423L26.56 15.7394L26.5601 15.7359C26.5601 15.6704 26.5609 15.6048 26.5622 15.5394H22.05L22.05 15.7493C22.05 16.1382 21.9822 16.5199 21.8539 16.8794H26.7548C26.6262 16.5204 26.56 16.1385 26.56 15.7493Z" fill="#CA0B4A"/>
<path d="M26.6435 14.4294C26.7001 13.9783 26.7844 13.5309 26.8937 13.0894H21.7396C21.8498 13.5304 21.9326 13.9777 21.9849 14.4294H26.6435Z" fill="#CA0B4A"/>
<path d="M9 31C12.866 31 16 27.866 16 24C16 20.134 12.866 17 9 17C5.13401 17 2 20.134 2 24C2 27.866 5.13401 31 9 31Z" fill="#635994"/>
<path d="M10.2398 19.7394C10.2398 20.3635 9.73389 20.8694 9.1098 20.8694C8.48572 20.8694 7.9798 20.3635 7.9798 19.7394C7.9798 19.1153 8.48572 18.6094 9.1098 18.6094C9.73389 18.6094 10.2398 19.1153 10.2398 19.7394ZM7.1798 23.6994C7.80389 23.6994 8.3098 23.1935 8.3098 22.5694C8.3098 21.9453 7.80389 21.4394 7.1798 21.4394C6.55572 21.4394 6.0498 21.9453 6.0498 22.5694C6.0498 23.1935 6.55572 23.6994 7.1798 23.6994ZM10.8598 23.6994C11.4839 23.6994 11.9898 23.1935 11.9898 22.5694C11.9898 21.9453 11.4839 21.4394 10.8598 21.4394C10.2357 21.4394 9.7298 21.9453 9.7298 22.5694C9.7298 23.1935 10.2357 23.6994 10.8598 23.6994Z" fill="#212121"/>
</svg>

<svg xmlns="http://www.w3.org/2000/svg" width="32" height="32" fill="none"><path fill="#9B9B9B" fill-rule="evenodd" d="M23.98 5.012a4.596 4.596 0 0 0-3.637 2.26 4.583 4.583 0 0 0-4.292-2.26 4.6 4.6 0 0 0-4.259 4.284 4.624 4.624 0 0 0 .393 2.178l.005.009c.59 1.3.93 2.68.93 4.066v.2c0 .644-.267 1.267-.736 1.723l-.285.275-.002.002c-3.187 3.05-3.218 8.127-.091 11.23l.002.002 1.505 1.486.003.003c.317.315.76.5 1.214.5h3.32a1.71 1.71 0 0 0 1.216-.502l.001-.001 1.084-1.077 1.092 1.077.003.003c.317.315.76.5 1.214.5h3.32a1.71 1.71 0 0 0 1.216-.502l.001-.001 1.506-1.496v-.001a7.835 7.835 0 0 0-.092-11.233l-.309-.289-.008-.007a2.271 2.271 0 0 1-.734-1.691c0-1.472.352-2.946.957-4.33l.001-.004a4.588 4.588 0 0 0-4.537-6.404ZM21.05 15.75c0 .625-.251 1.23-.696 1.681a2.308 2.308 0 0 1-.724-1.682c0-1.262.26-2.526.715-3.735.45 1.143.705 2.337.705 3.536v.2Z" clip-rule="evenodd"/><path fill="#E6E6E6" d="M26.56 15.75c0-1.63.39-3.24 1.04-4.73a3.588 3.588 0 0 0-3.55-5.01 3.6 3.6 0 0 0-3.33 3.35c-.04.61.08 1.19.31 1.71.64 1.41 1.02 2.93 1.02 4.48v.2c0 .92-.38 1.8-1.04 2.44l-.29.28c-2.78 2.66-2.81 7.09-.08 9.8l1.51 1.49c.13.13.32.21.51.21h3.32c.19 0 .37-.07.51-.21l1.51-1.5a6.835 6.835 0 0 0-.08-9.8l-.3-.28a3.27 3.27 0 0 1-1.06-2.43Z"/><path fill="#F4F4F4" d="M18.63 15.75c0-1.63.39-3.24 1.04-4.73a3.588 3.588 0 0 0-3.55-5.01 3.6 3.6 0 0 0-3.33 3.35c-.04.61.08 1.19.31 1.71.64 1.41 1.02 2.93 1.02 4.48v.2c0 .92-.38 1.8-1.04 2.44l-.29.28c-2.78 2.66-2.81 7.09-.08 9.8l1.51 1.49c.13.13.32.21.51.21h3.32c.19 0 .37-.07.51-.21l1.51-1.5a6.835 6.835 0 0 0-.08-9.8l-.3-.28a3.308 3.308 0 0 1-1.06-2.43Z"/><path fill="#CA0B4A" d="M18.63 15.75c0-.07 0-.14.002-.21H14.12v.21c0 .388-.068.77-.196 1.13h4.904a3.32 3.32 0 0 1-.198-1.13ZM18.713 14.43c.057-.452.141-.9.25-1.34H13.81c.11.44.193.888.245 1.34h4.659ZM26.56 15.75V15.735c0-.066 0-.131.002-.197H22.05v.21c0 .39-.068.77-.196 1.13h4.9a3.349 3.349 0 0 1-.194-1.13ZM26.643 14.43c.057-.452.141-.9.25-1.34H21.74c.11.44.193.888.245 1.34h4.659Z"/><path fill="#635994" d="M9 31a7 7 0 1 0 0-14 7 7 0 0 0 0 14Z"/><path fill="#212121" d="M10.24 19.74a1.13 1.13 0 1 1-2.26 0 1.13 1.13 0 0 1 2.26 0ZM7.18 23.7a1.13 1.13 0 1 0 0-2.26 1.13 1.13 0 0 0 0 2.26Zm3.68 0a1.13 1.13 0 1 0 0-2.26 1.13 1.13 0 0 0 0 2.26Z"/></svg>
